img/cart-lk.svg

<svg width="332" height="280" viewBox="0 0 332 280" fill="none" xmlns="http://www.w3.org/2000/svg">
<path d="M324.337 47.7411C317.884 39.8084 308.318 35.2318 298.092 35.1835C266.337 35.0415 205.25 34.7908 152.893 34.7183C124.138 34.679 101.497 34.6972 85.6044 34.7727C78.3031 34.8089 72.3279 34.8573 67.7846 34.9147L66.0506 26.8642C62.6945 11.3009 48.702 0 32.7763 0H13.2466C5.9423 0 0.0214844 5.92081 0.0214844 13.2252C0.0214844 20.5295 5.9423 26.4503 13.2466 26.4503H32.7763C36.3257 26.4503 39.4462 28.9697 40.1924 32.4406L44.2403 51.2362C44.2493 51.2845 44.2614 51.3328 44.2735 51.3812L75.24 195.148C78.5931 210.717 92.5855 222.015 108.511 222.015H146.006C136.043 224.214 126.21 227.193 116.589 230.924C103.811 231.794 93.7123 242.427 93.7123 255.429C93.7123 268.43 104.711 279.997 118.281 279.997C131.85 279.997 142.849 268.998 142.849 255.429C142.849 252.003 142.145 248.744 140.879 245.783C172.652 236.866 206.295 236.893 238.059 245.859C236.815 248.801 236.126 252.036 236.126 255.432C236.126 269.001 247.125 280 260.694 280C274.264 280 285.263 269.001 285.263 255.432C285.263 241.862 274.977 231.594 262.032 230.9C252.435 227.181 242.627 224.208 232.685 222.018H273.78C289.894 222.018 303.922 210.557 307.133 194.768L331.288 76.0069C333.327 65.9808 330.795 55.6798 324.34 47.7441L324.337 47.7411Z" fill="url(#paint0_linear_1969_16469)"/>
<defs>
<linearGradient id="paint0_linear_1969_16469" x1="286.951" y1="271.409" x2="114.357" y2="14.0166" gradientUnits="userSpaceOnUse">
<stop stop-color="#50BD38"/>
<stop offset="1" stop-color="#ABED44"/>
</linearGradient>
</defs>
</svg>

<svg width="332" height="280" fill="none" xmlns="http://www.w3.org/2000/svg"><path d="M324.337 47.741a33.92 33.92 0 00-26.245-12.557c-31.755-.142-92.842-.393-145.199-.466-28.755-.039-51.396-.02-67.289.055-7.3.036-13.276.084-17.82.142l-1.733-8.05C62.694 11.3 48.702 0 32.776 0h-19.53C5.943 0 .022 5.92.022 13.225c0 7.304 5.921 13.225 13.226 13.225h19.53c3.549 0 6.67 2.52 7.415 5.99l4.048 18.796c.01.049.021.097.033.145L75.24 195.148c3.353 15.569 17.346 26.867 33.271 26.867h37.495a201.466 201.466 0 00-29.417 8.909c-12.778.87-22.877 11.503-22.877 24.505 0 13.001 10.999 24.568 24.569 24.568 13.569 0 24.568-10.999 24.568-24.568 0-3.426-.704-6.685-1.97-9.646a179.385 179.385 0 0197.18.076 24.523 24.523 0 00-1.933 9.573c0 13.569 10.999 24.568 24.568 24.568 13.57 0 24.569-10.999 24.569-24.568 0-13.57-10.286-23.838-23.231-24.532a200.74 200.74 0 00-29.347-8.882h41.095c16.114 0 30.142-11.461 33.353-27.25l24.155-118.761a33.919 33.919 0 00-6.948-28.263l-.003-.003z" fill="url(#paint0_linear_1969_16469)"/><defs><linearGradient id="paint0_linear_1969_16469" x1="286.951" y1="271.409" x2="114.357" y2="14.017" gradientUnits="userSpaceOnUse"><stop stop-color="#50BD38"/><stop offset="1" stop-color="#ABED44"/></linearGradient></defs></svg>
